X:1
T:Nightingale Reel [11]
N:From fiddler Eric Favreau, Maine Fiddle Camp (7.2019)
M:C|
L:1/8
R:Reel
Z:Transcribed by Andrew Kuntz
K:G
B|:d2 BG DGBG|FA2A A3e|d2BG AdcA |FDCA, B,G,G,B|
d2 BG DGBG|FA2A [F3A3]B|d2BG  DdBd|1cAFA BAFA:|2cAFA BBGB||
|:g2dg zgdg|f+slide+a2g fdef|g2 dg zgdB|cBAc BAGB|
g2d[Bg] z[dg][B2g2]|faag fdef|g-f-gf ed2(B|cB)Ac BAGB:|

